!!!SOCIAL_FUNCTION:	buffalo dance songs
!!!PDT:	1956
!!!OTL: No_14_Buffalo_Dance_Song_(f).krn
!!!LANG: Non-Tone
!!!LING_GROUP: Muskogean
!!!REG: Florida
**kern
*staff1
=1-
*clefF4
*k[f#]
*M2/4
4.r
8B\
=2!|:
4.B\
8F#\
=3
8A\L
8G\J
4G\
=4
8B\L
8A\J
16B\LL
16A\J
8F#\J
=5
8A\L
8G\J
4G\
=6
8B\L
8A\J
8B\L
16A\L
16F#\JJ
=7
8A\L
8G\J
4G\
=8
16G\LL
16E\J
8E\J
8.E\L
16E\Jk
=9
8E\L
8E\J
4E\
=10
16G\LL
16E\J
8E\J
8.E\L
16E\Jk
=11||
*M3/4
8E\L
8E\J
4E\
4B\
=12:|!
*M2/4
8E\L
8E\J
4E\
==
*-
